svgs/halkbank.svg

<svg xmlns="http://www.w3.org/2000/svg" viewBox="0 0 192 192"><path d="M57.379 96c0-52.414.476-80 1.38-80 .885 0 1.386 13.462 1.4 37.586.012 20.673.521 38.373 1.131 39.335.858 1.352 8.907 1.665 35.496 1.379l34.386-.369.367-38.965c.313-33.371.66-38.966 2.414-38.966C135.739 16 136 26.181 136 96s-.261 80-2.047 80c-1.754 0-2.101-5.595-2.414-38.966l-.367-38.965-34.386-.369c-26.589-.286-34.638.027-35.496 1.379-.61.962-1.119 18.662-1.131 39.335-.014 24.124-.515 37.586-1.4 37.586-.904 0-1.38-27.586-1.38-80Zm-9.655 0c0-57.931.259-66.207 2.069-66.207S51.862 38.069 51.862 96s-.259 66.207-2.069 66.207-2.069-8.276-2.069-66.207Zm18.547 64.444c-.372-.97-.507-14.159-.301-29.31l.375-27.548h59.31v28.851c0 21.854-.418 28.99-1.724 29.425-1.341.447-1.724-5.578-1.724-27.126v-27.702H69.793v27.587c0 18.031-.493 27.586-1.422 27.586-.783 0-1.728-.793-2.1-1.763ZM141.517 96c0-43.218.479-66.207 1.38-66.207.9 0 1.379 22.989 1.379 66.207 0 43.218-.479 66.207-1.379 66.207-.901 0-1.38-22.989-1.38-66.207ZM38.069 96c0-45.67.266-52.414 2.069-52.414S42.207 50.33 42.207 96s-.266 52.414-2.069 52.414S38.069 141.67 38.069 96Zm37.241 34.483v-17.931h41.38v18.046c0 13.822-.404 17.912-1.724 17.474-1.21-.402-1.841-5.168-2.115-15.977l-.39-15.405H79.448v15.862c0 13.18-.35 15.862-2.069 15.862-1.733 0-2.069-2.912-2.069-17.931ZM149.793 96c0-45.67.266-52.414 2.069-52.414s2.069 6.744 2.069 52.414-.266 52.414-2.069 52.414-2.069-6.744-2.069-52.414ZM28.414 96c0-33.41.279-38.621 2.069-38.621S32.552 62.59 32.552 96c0 33.41-.279 38.621-2.069 38.621S28.414 129.41 28.414 96Zm56.552 32.414v-6.207h22.068v6.207c0 7.112-2.366 8.465-3.016 1.724-.421-4.372-.612-4.493-7.673-4.9l-7.242-.417v4.9c0 3.436-.618 4.9-2.069 4.9-1.532 0-2.068-1.61-2.068-6.207ZM159.448 96c0-33.41.279-38.621 2.069-38.621s2.069 5.211 2.069 38.621c0 33.41-.279 38.621-2.069 38.621s-2.069-5.211-2.069-38.621ZM65.972 59.217c.279-21.308.808-28.651 2.097-29.08 1.341-.446 1.724 5.58 1.724 27.127v27.702h52.414V57.379c0-23.601.299-27.586 2.069-27.586 1.773 0 2.069 4.138 2.069 28.966v28.965H65.599ZM76.23 78.529c-.506-.506-.92-8.575-.92-17.931 0-14.202.342-17.012 2.069-17.012 1.719 0 2.069 2.682 2.069 15.862V75.31h33.104V59.448c0-13.18.35-15.862 2.069-15.862 1.733 0 2.069 2.912 2.069 17.931v17.931H96.92c-10.874 0-20.184-.414-20.69-.919Zm8.736-14.943c0-7.537 3.695-8.986 4.395-1.724.365 3.787 1.047 4.553 4.392 4.935 7.338.839 10.523-.767 10.523-5.306 0-2.261.621-4.112 1.379-4.112.759 0 1.379 2.793 1.379 6.207v6.207H84.966Z"/></svg>

<svg
    xmlns="http://www.w3.org/2000/svg"
    viewBox="0 0 192 192"
    id="vector">
    <g id="group">
        <path
            id="path_6"
            d="M 57.379 96 C 57.379 43.586 57.855 16 58.759 16 C 59.644 16 60.145 29.462 60.159 53.586 C 60.171 74.259 60.68 91.959 61.29 92.921 C 62.148 94.273 70.197 94.586 96.786 94.3 L 131.172 93.931 L 131.539 54.966 C 131.852 21.595 132.199 16 133.953 16 C 135.739 16 136 26.181 136 96 C 136 165.819 135.739 176 133.953 176 C 132.199 176 131.852 170.405 131.539 137.034 L 131.172 98.069 L 96.786 97.7 C 70.197 97.414 62.148 97.727 61.29 99.079 C 60.68 100.041 60.171 117.741 60.159 138.414 C 60.145 162.538 59.644 176 58.759 176 C 57.855 176 57.379 148.414 57.379 96 Z M 47.724 96 C 47.724 38.069 47.983 29.793 49.793 29.793 C 51.603 29.793 51.862 38.069 51.862 96 C 51.862 153.931 51.603 162.207 49.793 162.207 C 47.983 162.207 47.724 153.931 47.724 96 Z M 66.271 160.444 C 65.899 159.474 65.764 146.285 65.97 131.134 L 66.345 103.586 L 125.655 103.586 L 125.655 132.437 C 125.655 154.291 125.237 161.427 123.931 161.862 C 122.59 162.309 122.207 156.284 122.207 134.736 L 122.207 107.034 L 69.793 107.034 L 69.793 134.621 C 69.793 152.652 69.3 162.207 68.371 162.207 C 67.588 162.207 66.643 161.414 66.271 160.444 Z M 141.517 96 C 141.517 52.782 141.996 29.793 142.897 29.793 C 143.797 29.793 144.276 52.782 144.276 96 C 144.276 139.218 143.797 162.207 142.897 162.207 C 141.996 162.207 141.517 139.218 141.517 96 Z M 38.069 96 C 38.069 50.33 38.335 43.586 40.138 43.586 C 41.941 43.586 42.207 50.33 42.207 96 C 42.207 141.67 41.941 148.414 40.138 148.414 C 38.335 148.414 38.069 141.67 38.069 96 Z M 75.31 130.483 L 75.31 112.552 L 116.69 112.552 L 116.69 130.598 C 116.69 144.42 116.286 148.51 114.966 148.072 C 113.756 147.67 113.125 142.904 112.851 132.095 L 112.461 116.69 L 79.448 116.69 L 79.448 132.552 C 79.448 145.732 79.098 148.414 77.379 148.414 C 75.646 148.414 75.31 145.502 75.31 130.483 Z M 149.793 96 C 149.793 50.33 150.059 43.586 151.862 43.586 C 153.665 43.586 153.931 50.33 153.931 96 C 153.931 141.67 153.665 148.414 151.862 148.414 C 150.059 148.414 149.793 141.67 149.793 96 Z M 28.414 96 C 28.414 62.59 28.693 57.379 30.483 57.379 C 32.273 57.379 32.552 62.59 32.552 96 C 32.552 129.41 32.273 134.621 30.483 134.621 C 28.693 134.621 28.414 129.41 28.414 96 Z M 84.966 128.414 L 84.966 122.207 L 107.034 122.207 L 107.034 128.414 C 107.034 135.526 104.668 136.879 104.018 130.138 C 103.597 125.766 103.406 125.645 96.345 125.238 L 89.103 124.821 L 89.103 129.721 C 89.103 133.157 88.485 134.621 87.034 134.621 C 85.502 134.621 84.966 133.011 84.966 128.414 Z M 159.448 96 C 159.448 62.59 159.727 57.379 161.517 57.379 C 163.307 57.379 163.586 62.59 163.586 96 C 163.586 129.41 163.307 134.621 161.517 134.621 C 159.727 134.621 159.448 129.41 159.448 96 Z M 65.972 59.217 C 66.251 37.909 66.78 30.566 68.069 30.137 C 69.41 29.691 69.793 35.717 69.793 57.264 L 69.793 84.966 L 122.207 84.966 L 122.207 57.379 C 122.207 33.778 122.506 29.793 124.276 29.793 C 126.049 29.793 126.345 33.931 126.345 58.759 L 126.345 87.724 L 65.599 87.724 Z M 76.23 78.529 C 75.724 78.023 75.31 69.954 75.31 60.598 C 75.31 46.396 75.652 43.586 77.379 43.586 C 79.098 43.586 79.448 46.268 79.448 59.448 L 79.448 75.31 L 112.552 75.31 L 112.552 59.448 C 112.552 46.268 112.902 43.586 114.621 43.586 C 116.354 43.586 116.69 46.498 116.69 61.517 L 116.69 79.448 L 96.92 79.448 C 86.046 79.448 76.736 79.034 76.23 78.529 Z M 84.966 63.586 C 84.966 56.049 88.661 54.6 89.361 61.862 C 89.726 65.649 90.408 66.415 93.753 66.797 C 101.091 67.636 104.276 66.03 104.276 61.491 C 104.276 59.23 104.897 57.379 105.655 57.379 C 106.414 57.379 107.034 60.172 107.034 63.586 L 107.034 69.793 L 84.966 69.793 Z"
            fill="#000000"
            stroke-width="12"/>
    </g>
</svg>
